flaticon/gastronomy/pepper-1.svg

<svg xmlns="http://www.w3.org/2000/svg" width="32" height="32" viewBox="0 0 24 24">
    <path d="M 11.199219 12.800781 L 12.398438 12.800781 C 13.28125 12.800781 14 12.082031 14 11.199219 C 14 10.316406 13.28125 9.601562 12.398438 9.601562 L 10.398438 9.601562 L 10.398438 14 L 11.199219 14 Z M 11.199219 10.398438 L 12.398438 10.398438 C 12.839844 10.398438 13.199219 10.757812 13.199219 11.199219 C 13.199219 11.640625 12.839844 12 12.398438 12 L 11.199219 12 Z M 11.199219 10.398438"/>
    <path d="M 16.890625 19.859375 C 16.777344 19.703125 16.777344 19.496094 16.890625 19.34375 C 17.160156 18.976562 17.257812 18.527344 17.167969 18.082031 C 17.160156 18.03125 17.140625 17.988281 17.128906 17.941406 C 17.171875 17.828125 17.199219 17.710938 17.199219 17.601562 L 17.199219 17.457031 C 17.199219 16.757812 17.042969 16.046875 16.738281 15.355469 C 15.75 13.125 15.753906 11.292969 16.746094 9.03125 C 17.046875 8.347656 17.199219 7.648438 17.199219 6.953125 L 17.199219 6.398438 C 17.199219 6.074219 17.054688 5.773438 16.761719 5.496094 C 17.039062 5.0625 17.199219 4.550781 17.199219 4 C 17.199219 2.457031 15.945312 1.199219 14.398438 1.199219 L 13.199219 1.199219 L 13.199219 0 L 10.800781 0 L 10.800781 1.199219 L 9.601562 1.199219 C 8.054688 1.199219 6.800781 2.457031 6.800781 4 C 6.800781 4.550781 6.960938 5.0625 7.238281 5.496094 C 6.945312 5.773438 6.800781 6.074219 6.800781 6.398438 L 6.800781 6.949219 C 6.800781 7.648438 6.953125 8.347656 7.253906 9.035156 C 8.246094 11.289062 8.246094 13.121094 7.261719 15.355469 C 6.957031 16.050781 6.800781 16.757812 6.800781 17.457031 L 6.800781 17.601562 C 6.800781 17.710938 6.828125 17.828125 6.871094 17.941406 C 6.859375 17.988281 6.839844 18.03125 6.832031 18.078125 C 6.742188 18.527344 6.839844 18.976562 7.109375 19.34375 C 7.222656 19.496094 7.222656 19.703125 7.109375 19.855469 C 6.855469 20.203125 6.761719 20.621094 6.824219 21.042969 C 6.8125 21.101562 6.800781 21.164062 6.800781 21.234375 L 6.800781 24 L 17.199219 24 L 17.199219 21.234375 C 17.199219 21.164062 17.1875 21.101562 17.175781 21.042969 C 17.238281 20.621094 17.144531 20.203125 16.890625 19.859375 Z M 7.722656 21.21875 C 7.675781 21.144531 7.640625 21.0625 7.621094 20.972656 L 7.613281 20.941406 C 7.578125 20.722656 7.625 20.507812 7.753906 20.328125 C 7.828125 20.226562 7.886719 20.117188 7.925781 20 L 9.199219 20 C 9.421875 20 9.601562 19.820312 9.601562 19.601562 C 9.601562 19.378906 9.421875 19.199219 9.199219 19.199219 L 7.925781 19.199219 C 7.886719 19.085938 7.828125 18.972656 7.753906 18.871094 C 7.621094 18.6875 7.570312 18.460938 7.617188 18.234375 C 7.625 18.195312 7.636719 18.15625 7.652344 18.113281 L 7.664062 18.089844 C 7.664062 18.089844 7.667969 18.085938 7.667969 18.082031 C 7.691406 18.027344 7.722656 17.980469 7.757812 17.933594 C 7.882812 17.773438 8.070312 17.65625 8.285156 17.617188 C 8.300781 17.613281 8.316406 17.609375 8.332031 17.609375 C 8.371094 17.605469 8.410156 17.601562 8.453125 17.601562 L 15.546875 17.601562 C 15.589844 17.601562 15.628906 17.605469 15.667969 17.609375 C 15.683594 17.613281 15.699219 17.613281 15.714844 17.617188 C 15.929688 17.65625 16.117188 17.773438 16.242188 17.9375 C 16.273438 17.980469 16.308594 18.027344 16.332031 18.082031 C 16.332031 18.085938 16.335938 18.089844 16.335938 18.09375 L 16.347656 18.113281 C 16.363281 18.152344 16.375 18.195312 16.382812 18.238281 C 16.429688 18.460938 16.378906 18.6875 16.246094 18.871094 C 16.171875 18.972656 16.113281 19.085938 16.074219 19.199219 L 12.398438 19.199219 C 12.179688 19.199219 12 19.378906 12 19.601562 C 12 19.820312 12.179688 20 12.398438 20 L 16.074219 20 C 16.113281 20.117188 16.171875 20.226562 16.246094 20.328125 C 16.375 20.507812 16.421875 20.722656 16.386719 20.941406 L 16.378906 20.972656 C 16.359375 21.0625 16.324219 21.144531 16.277344 21.21875 C 16.125 21.445312 15.851562 21.601562 15.546875 21.601562 L 8.453125 21.601562 C 8.148438 21.601562 7.875 21.445312 7.722656 21.21875 Z M 11.601562 0.800781 L 12.398438 0.800781 L 12.398438 1.199219 L 11.601562 1.199219 Z M 9.601562 2 L 14.398438 2 C 15.503906 2 16.398438 2.898438 16.398438 4 C 16.398438 4.519531 16.195312 4.992188 15.867188 5.347656 C 15.835938 5.382812 15.804688 5.417969 15.769531 5.449219 C 15.707031 5.511719 15.636719 5.566406 15.566406 5.617188 C 15.53125 5.644531 15.496094 5.667969 15.460938 5.691406 C 15.378906 5.738281 15.296875 5.785156 15.210938 5.824219 C 15.179688 5.839844 15.152344 5.847656 15.121094 5.859375 C 15.023438 5.898438 14.921875 5.933594 14.816406 5.957031 C 14.800781 5.957031 14.785156 5.960938 14.769531 5.964844 C 14.648438 5.984375 14.527344 6 14.398438 6 L 9.601562 6 C 9.472656 6 9.351562 5.984375 9.230469 5.960938 C 9.214844 5.960938 9.199219 5.957031 9.183594 5.953125 C 9.078125 5.933594 8.976562 5.898438 8.878906 5.859375 C 8.847656 5.847656 8.816406 5.835938 8.789062 5.824219 C 8.703125 5.785156 8.621094 5.738281 8.539062 5.6875 C 8.503906 5.664062 8.46875 5.644531 8.433594 5.617188 C 8.363281 5.566406 8.292969 5.511719 8.230469 5.449219 C 8.195312 5.417969 8.164062 5.382812 8.132812 5.347656 C 7.804688 4.992188 7.601562 4.519531 7.601562 4 C 7.601562 2.898438 8.496094 2 9.601562 2 Z M 7.992188 15.679688 C 9.082031 13.214844 9.078125 11.195312 7.988281 8.710938 C 7.730469 8.128906 7.601562 7.535156 7.601562 6.949219 L 7.601562 6.398438 C 7.601562 6.3125 7.65625 6.210938 7.757812 6.105469 C 7.882812 6.214844 8.019531 6.3125 8.160156 6.398438 C 8.164062 6.398438 8.167969 6.402344 8.171875 6.402344 C 8.238281 6.441406 8.304688 6.476562 8.371094 6.511719 C 8.382812 6.515625 8.394531 6.523438 8.402344 6.527344 C 8.464844 6.558594 8.53125 6.585938 8.597656 6.609375 C 8.613281 6.617188 8.632812 6.625 8.652344 6.628906 C 8.710938 6.652344 8.769531 6.671875 8.832031 6.691406 C 8.859375 6.699219 8.886719 6.703125 8.914062 6.710938 C 8.96875 6.726562 9.023438 6.738281 9.078125 6.75 C 9.121094 6.757812 9.164062 6.761719 9.207031 6.769531 C 9.25 6.773438 9.289062 6.78125 9.332031 6.785156 C 9.421875 6.796875 9.511719 6.800781 9.601562 6.800781 L 14.398438 6.800781 C 14.488281 6.800781 14.578125 6.796875 14.667969 6.785156 C 14.710938 6.78125 14.75 6.773438 14.792969 6.769531 C 14.835938 6.761719 14.878906 6.757812 14.921875 6.75 C 14.976562 6.738281 15.03125 6.726562 15.085938 6.710938 C 15.113281 6.703125 15.140625 6.699219 15.167969 6.691406 C 15.230469 6.671875 15.289062 6.652344 15.351562 6.628906 C 15.367188 6.625 15.386719 6.617188 15.40625 6.609375 C 15.46875 6.585938 15.535156 6.558594 15.597656 6.527344 C 15.605469 6.523438 15.617188 6.515625 15.628906 6.511719 C 15.695312 6.476562 15.761719 6.441406 15.828125 6.402344 C 15.832031 6.402344 15.835938 6.398438 15.839844 6.394531 C 15.980469 6.308594 16.117188 6.214844 16.242188 6.105469 C 16.34375 6.210938 16.398438 6.3125 16.398438 6.398438 L 16.398438 6.953125 C 16.398438 7.539062 16.269531 8.128906 16.015625 8.710938 C 14.921875 11.203125 14.917969 13.21875 16.003906 15.675781 C 16.199219 16.117188 16.324219 16.558594 16.375 17 C 16.140625 16.871094 15.875 16.800781 15.601562 16.800781 L 8.398438 16.800781 C 8.125 16.800781 7.859375 16.871094 7.625 17 C 7.675781 16.558594 7.800781 16.117188 7.992188 15.679688 Z M 16.398438 23.199219 L 7.601562 23.199219 L 7.601562 22.179688 C 7.839844 22.320312 8.113281 22.398438 8.398438 22.398438 L 15.601562 22.398438 C 15.886719 22.398438 16.160156 22.320312 16.398438 22.179688 Z M 16.398438 23.199219"/>
</svg>

<svg xmlns="http://www.w3.org/2000/svg" width="32" height="32" viewBox="0 0 24 24">
    <path d="M11.2 12.8h1.198c.883 0 1.602-.718 1.602-1.6a1.6 1.6 0 0 0-1.602-1.598h-2V14h.801zm0-2.402h1.198a.802.802 0 0 1 0 1.602H11.2zm0 0"/>
    <path d="M16.89 19.86a.434.434 0 0 1 0-.516c.27-.367.368-.817.278-1.262-.008-.05-.027-.094-.04-.14a.98.98 0 0 0 .071-.34v-.145c0-.7-.156-1.41-.46-2.102-.989-2.23-.985-4.062.007-6.324.3-.683.453-1.383.453-2.078v-.555c0-.324-.144-.625-.437-.902.277-.434.437-.945.437-1.496 0-1.543-1.254-2.8-2.8-2.8h-1.2V0h-2.398v1.2H9.6a2.803 2.803 0 0 0-2.8 2.8c0 .55.16 1.063.437 1.496-.293.277-.437.578-.437.902v.551c0 .7.152 1.399.453 2.086.992 2.254.992 4.086.008 6.32a5.224 5.224 0 0 0-.461 2.102v.145c0 .109.027.226.07.34-.012.046-.031.09-.039.136-.09.45.008.899.277 1.266a.428.428 0 0 1 0 .511 1.59 1.59 0 0 0-.285 1.188.95.95 0 0 0-.023.191V24h10.398v-2.766a.95.95 0 0 0-.023-.191 1.577 1.577 0 0 0-.285-1.184zm-9.167 1.359a.762.762 0 0 1-.102-.246l-.008-.032a.814.814 0 0 1 .14-.613c.075-.101.134-.21.173-.328h1.273a.401.401 0 1 0 0-.8H7.926a1.257 1.257 0 0 0-.172-.329.8.8 0 0 1-.102-.758l.012-.023s.004-.004.004-.008a.716.716 0 0 1 .09-.148.868.868 0 0 1 .574-.325c.04-.004.078-.007.121-.007h7.094c.043 0 .082.003.121.007.016.004.031.004.047.008.215.04.402.156.527.32.031.043.067.09.09.145 0 .004.004.008.004.012l.012.02a.794.794 0 0 1-.102.758 1.257 1.257 0 0 0-.172.327h-3.676a.401.401 0 0 0 0 .801h3.676c.04.117.098.227.172.328.129.18.176.395.14.613l-.007.032a.762.762 0 0 1-.102.246.886.886 0 0 1-.73.383H8.453a.886.886 0 0 1-.73-.383zM11.602.8h.796v.398h-.796zM9.602 2h4.796c1.106 0 2 .898 2 2 0 .52-.203.992-.53 1.348-.032.035-.063.07-.098.101a1.656 1.656 0 0 1-.204.168c-.035.028-.07.051-.105.074-.082.047-.164.094-.25.133-.031.016-.059.024-.09.035-.098.04-.2.075-.305.098-.015 0-.03.004-.046.008-.122.02-.243.035-.372.035H9.602c-.13 0-.25-.016-.372-.04a1.62 1.62 0 0 1-.352-.102c-.03-.01-.062-.022-.089-.034a2.229 2.229 0 0 1-.25-.136c-.035-.024-.07-.043-.105-.07-.07-.052-.141-.106-.204-.169-.035-.031-.066-.066-.097-.101A1.982 1.982 0 0 1 7.602 4c0-1.102.894-2 2-2zm-1.61 13.68c1.09-2.465 1.086-4.485-.004-6.97a4.337 4.337 0 0 1-.386-1.76v-.552c0-.085.054-.187.156-.293.125.11.262.207.402.293.004 0 .008.004.012.004.066.04.133.075.2.11l.03.015a1.718 1.718 0 0 0 .25.102c.059.023.118.043.18.062.027.008.055.012.082.02.055.016.11.027.164.039.043.008.086.012.129.02.043.003.082.011.125.015.09.012.18.016.27.016h4.796c.09 0 .18-.004.27-.016.043-.004.082-.012.125-.015.043-.008.086-.012.129-.02.055-.012.11-.023.164-.04.027-.007.055-.01.082-.019a3.39 3.39 0 0 0 .43-.164l.03-.015c.067-.035.134-.07.2-.11.004 0 .008-.004.012-.007.14-.086.277-.18.402-.29.102.106.156.207.156.293v.555c0 .586-.128 1.176-.382 1.758-1.094 2.492-1.098 4.508-.012 6.965.195.441.32.883.371 1.324-.234-.129-.5-.2-.773-.2H8.398c-.273 0-.539.071-.773.2a4.61 4.61 0 0 1 .367-1.32zm8.406 7.52H7.602v-1.02c.238.14.511.218.796.218h7.204c.285 0 .558-.078.796-.218zm0 0"/>
</svg>
